X:58
T:Don't Do That Again
C:George Paul
N:From Transcription by DGW
M:C|
K:Dmix
"D7"LdDDD L[cA]DDD| L[BG]DDD L[AF]DDD|"D7"^EFEF D2 B,2|D2 B,{^E}F- F z z2|
"D7"LdDDD L[cA]DDD| L[BG]DDD L[AF]DDD|"D7"^EFEF [A2F2] [B2G2]| [c2A2][B2G2][A2F2] z2 :|
"G7"z2 [=FD][E^C] [FD][EC][FD][EC] |[=FD][E^C][FD][EC] [FD][G3E3] |"G7"z2[=FD][E^C] [FD][EC][FD][EC] | [=FD] [E2C2] [D-B,-][D4B,4]|
"G7"z2 [=FD][E^C] [FD][EC][FD][EC] |[=FD][E^C][FD][EC] [FD][G3E3] |"G7"z2 L[=f2-d2-][fd] L[e3c3]|L[d8B8]||
"Bb7"z2 [_A=F][GE] [AF][GE][AF][GE]|[_A=F][GE] [AF][GE] [AF] [_B3G3]|"Bb7"z2 [_A=F][GE] [AF][GE][AF][GE]|[_A=F] [G2_E2] [F-D-][F4D4]||
"C7" z2 [_BG][AF] [BG][AF][BG][AF]| [_BG][AF][BG][AF] [BG] [c3A3]| "A7"L[^c2E2]L[c2E2]L[c2E2]L[c2E2]|L[^c2E2]z2z4|]
